src/camera-24.svg

<?xml version="1.0" encoding="UTF-8" standalone="no"?>
<!-- Created with Inkscape (http://www.inkscape.org/) -->

<svg
   xmlns:dc="http://purl.org/dc/elements/1.1/"
   xmlns:cc="http://creativecommons.org/ns#"
   xmlns:rdf="http://www.w3.org/1999/02/22-rdf-syntax-ns#"
   xmlns:svg="http://www.w3.org/2000/svg"
   xmlns="http://www.w3.org/2000/svg"
   xmlns:inkscape="http://www.inkscape.org/namespaces/inkscape"
   version="1.1"
   width="24"
   height="24"
   viewBox="-402.5 403.5 24 24"
   id="svg4460"
   xml:space="preserve"><metadata
     id="metadata3052"><rdf:RDF><cc:Work
         rdf:about=""><dc:format>image/svg+xml</dc:format><dc:type
           rdf:resource="http://purl.org/dc/dcmitype/StillImage" /><dc:title /></cc:Work></rdf:RDF></metadata><defs
     id="defs3050" /><g
     transform="translate(0,-1028.3622)"
     id="layer1" /><g
     transform="translate(0,-2)"
     id="photo"><path
       d="m -381.5,411.5 h -4 v -1 c 0,-0.553 -0.448,-1 -1,-1 h -4 c -0.552,0 -1,0.447 -1,1 v 1 h -3 c 0,-0.553 -0.448,-1 -1,-1 h -1 c -0.552,0 -1,0.447 -1,1 h -1 c -0.552,0 -1,0.447 -1,1 v 10 c 0,0.553 0.448,1 1,1 h 17 c 0.552,0 1,-0.447 1,-1 v -10 c 0,-0.553 -0.448,-1 -1,-1 z"
       inkscape:connector-curvature="0"
       id="path3042"
       style="opacity:0.3;fill:#ffffff;stroke:#ffffff;stroke-width:2;stroke-miterlimit:10" /><g
       id="g3044"><path
         d="M 12,4 C 11.448,4 11,4.447 11,5 L 11,6 8,6 C 8,5.447 7.552,5 7,5 L 6,5 C 5.448,5 5,5.447 5,6 L 4,6 C 3.448,6 3,6.447 3,7 l 0,10 c 0,0.553 0.448,1 1,1 l 17,0 c 0.552,0 1,-0.447 1,-1 L 22,7 C 22,6.447 21.552,6 21,6 L 17,6 17,5 C 17,4.447 16.552,4 16,4 l -4,0 z m 2,4 c 2.209,0 4,1.791 4,4 0,2.209 -1.791,4 -4,4 -2.209,0 -4,-1.791 -4,-4 0,-2.209 1.791,-4 4,-4 z m 0,2 c -1.104569,0 -2,0.895431 -2,2 0,1.104569 0.895431,2 2,2 1.104569,0 2,-0.895431 2,-2 0,-1.104569 -0.895431,-2 -2,-2 z"
         inkscape:connector-curvature="0"
         transform="translate(-402.5,405.5)"
         id="path3046"
         style="fill:#454545" /></g></g><rect
     width="24"
     height="24"
     x="0"
     y="0"
     id="canvas"
     style="fill:none;stroke:none;visibility:hidden" /></svg>

<?xml version="1.0" encoding="UTF-8" standalone="no"?>
<!-- Generator: Adobe Illustrator 15.1.0, SVG Export Plug-In . SVG Version: 6.00 Build 0)  -->

<svg
   xmlns:dc="http://purl.org/dc/elements/1.1/"
   xmlns:cc="http://creativecommons.org/ns#"
   xmlns:rdf="http://www.w3.org/1999/02/22-rdf-syntax-ns#"
   xmlns:svg="http://www.w3.org/2000/svg"
   xmlns="http://www.w3.org/2000/svg"
   xmlns:sodipodi="http://sodipodi.sourceforge.net/DTD/sodipodi-0.dtd"
   xmlns:inkscape="http://www.inkscape.org/namespaces/inkscape"
   version="1.1"
   id="svg4460"
   sodipodi:docname="camera-24.svg"
   inkscape:version="0.48.4 r"
   x="0px"
   y="0px"
   width="24px"
   height="24px"
   viewBox="-402.5 403.5 24 24"
   enable-background="new -402.5 403.5 24 24"
   xml:space="preserve"><metadata
     id="metadata3052"><rdf:RDF><cc:Work
         rdf:about=""><dc:format>image/svg+xml</dc:format><dc:type
           rdf:resource="http://purl.org/dc/dcmitype/StillImage" /><dc:title></dc:title></cc:Work></rdf:RDF></metadata><defs
     id="defs3050" /><sodipodi:namedview
     id="base"
     inkscape:pageopacity="0.0"
     borderopacity="1.0"
     inkscape:cx="22.685227"
     inkscape:pageshadow="2"
     inkscape:zoom="15.999999"
     inkscape:document-units="px"
     inkscape:current-layer="layer1"
     inkscape:guide-bbox="true"
     showguides="true"
     inkscape:window-width="1220"
     showgrid="true"
     inkscape:window-height="833"
     inkscape:window-x="317"
     inkscape:cy="8.9857537"
     inkscape:window-y="45"
     inkscape:window-maximized="0"
     pagecolor="#ffffff"
     bordercolor="#666666"><inkscape:grid
       type="xygrid"
       id="grid4468"
       enabled="true"
       empspacing="2"
       visible="true"
       snapvisiblegridlinesonly="true" /><sodipodi:guide
       id="guide4470"
       position="0,20"
       orientation="1,0" /><sodipodi:guide
       id="guide4472"
       position="4,24"
       orientation="0,1" /><sodipodi:guide
       id="guide4474"
       position="24,13"
       orientation="1,0" /><sodipodi:guide
       id="guide4476"
       position="15,0"
       orientation="0,1" /><sodipodi:guide
       id="guide4478"
       position="23,20"
       orientation="1,0" /><sodipodi:guide
       id="guide4480"
       position="20,23"
       orientation="0,1" /><sodipodi:guide
       id="guide4482"
       position="2,5"
       orientation="1,0" /><sodipodi:guide
       id="guide4484"
       position="7,2"
       orientation="0,1" /><sodipodi:guide
       id="guide4486"
       position="13,16"
       orientation="1,0" /><sodipodi:guide
       id="guide4490"
       position="16,13"
       orientation="0,1" /></sodipodi:namedview><g
     id="layer1"
     transform="translate(0,-1028.3622)"
     inkscape:groupmode="layer"
     inkscape:label="Layer 1" /><g
     id="photo"
     transform="translate(0,-2)"><path
       stroke-miterlimit="10"
       d="m -381.5,411.5 h -4 v -1 c 0,-0.553 -0.448,-1 -1,-1 h -4 c -0.552,0 -1,0.447 -1,1 v 1 h -3 c 0,-0.553 -0.448,-1 -1,-1 h -1 c -0.552,0 -1,0.447 -1,1 h -1 c -0.552,0 -1,0.447 -1,1 v 10 c 0,0.553 0.448,1 1,1 h 17 c 0.552,0 1,-0.447 1,-1 v -10 c 0,-0.553 -0.448,-1 -1,-1 z"
       id="path3042"
       inkscape:connector-curvature="0"
       style="opacity:0.3;fill:#ffffff;stroke:#ffffff;stroke-width:2;stroke-miterlimit:10" /><g
       id="g3044"><path
         style="fill:#454545"
         d="M 12 4 C 11.448 4 11 4.447 11 5 L 11 6 L 8 6 C 8 5.447 7.552 5 7 5 L 6 5 C 5.448 5 5 5.447 5 6 L 4 6 C 3.448 6 3 6.447 3 7 L 3 17 C 3 17.553 3.448 18 4 18 L 21 18 C 21.552 18 22 17.553 22 17 L 22 7 C 22 6.447 21.552 6 21 6 L 17 6 L 17 5 C 17 4.447 16.552 4 16 4 L 12 4 z M 14 8 C 16.209 8 18 9.791 18 12 C 18 14.209 16.209 16 14 16 C 11.791 16 10 14.209 10 12 C 10 9.791 11.791 8 14 8 z M 14 10 C 12.895431 10 12 10.895431 12 12 C 12 13.104569 12.895431 14 14 14 C 15.104569 14 16 13.104569 16 12 C 16 10.895431 15.104569 10 14 10 z "
         transform="translate(-402.5,405.5)"
         id="path3046" /></g></g></svg>
